X: 2285
M: C
L: 1/8
K: G
(3(uDEF) !segno!|\
[1 Aa2a a2g2 | fgef dcBA :|\
[2 cBAG FDEF | GDB,D G,2 ||
(Dd)dd d2dc | (Bb)bb b2ag |\
(fd).d.d (e^c).c.c | dAFA GFED |\
(Dd)dd d2dc | (Bb)bb b2ag |\
(fd).d.d (e^c)cc |[1dAFA d2 :|[2 dAFA DD"_D.C."EF !segno!|]


